X:1
T:Female Saylor, The
C:Marin Marais
M:6/8
K:Gm
Z:AW
|:"Gm"G2dd2c|B3c3|d2cB2A|"D7"B2AG2^F| 
"Gm"G2dd2c|"Cm"B3c3|"D7"d2cB2A|"Gm"G6:|
|:"Gm"b2ag2^f|g3d3|"Eb"b2ag2^f|g3d2=f| 
"Cm"e2c"D"d2A|"Gm"B2GB2c|1"D7"d3=e2^f|g3a3:|2"D7"d3A2[BG]|"Gm"G6|]

